X:23
T:The Spanish Jeepsie
R:Jig
M:6/8
L:1/8
Q:110
K:D
A|d>ef d>ef|d3-d2A|d>ef d>ef|d3-d2 e|f2e d2c|B3 A3|A2F A2G|F3-F3|
F2G A2A|B2A d2D|F2G A>GF|E2D D3|F2GA2A|B2Ad2D|F2GA>GF|E2DD3|

